X:1
T:Ballade No. 1 in G Minor
T:Op. 23
T:Frédérick Chopin
%%score { ( 1 4 5 6 ) | ( 2 3 ) }
L:1/8
Q:1/4=48
M:4/4
K:Bb
V:1 treble nm="Piano"
V:4 treble 
V:5 treble 
V:6 treble 
V:2 bass 
V:3 bass 
V:1
"^Largo"!f! x8 | C_A,EB c_A[Q:1/4=44]!>(!eb | c'gb_a g2!>)!!p![Q:1/4=20]"^ten." ^f[Q:1/4=20] z | %3
 z!p![Q:1/4=48] ^fgf ^ef(3=ag_e | e>d(3=fed d2 z2 | z4 c3!mp! G | %6
!mf![Q:1/4=240] z2 B6-[Q:1/4=48] ||[M:6/4][Q:1/4=130]"^Moderato" B6 z x x!mf! ^F2 x | %8
!mf! B6!mf![Q:1/4=120] d6 |[Q:1/4=110]!mp! c6 z[Q:1/4=130] x x!mf! ^F2 x | %10
!mf! G6!mf![Q:1/4=120] =E6 |[Q:1/4=110]!mp! ^F6 z!mp![Q:1/4=130] x x!mf! F2 x | %12
!mf! G6!mf![Q:1/4=120] g6 |[Q:1/4=110]!mp! =f6!mp![Q:1/4=130] E6 |!mf! ^c6!mf![Q:1/4=120] d6 | %15
[Q:1/4=110]!mp! =c6 z!mp![Q:1/4=130] x x!mf! ^F2 x |!mf! G6!mf![Q:1/4=120] d6 | %17
[Q:1/4=110]!mp! c6 z!mp![Q:1/4=130] x x!mf! ^F2 x |!mf! G6!mf![Q:1/4=120] =E6 | %19
[Q:1/4=110] ^F6 z!mp![Q:1/4=130] x x!mf! F2 x |!mf! G6!mf! g6 |!mf! g6!mf! d6 | %22
!mf![Q:1/4=120] c6!mp![Q:1/4=110] G6 |!mf![Q:1/4=130] g6!mf! d6 |!mf! c6!mf! G6 |!mf! F6!mf! d6- | %26
 d2{/d} c2!<(! [A=B]2 c2!mf! d2 e2!<)! |!f! e6!mp! d6 |!mp! z2 A2!<(! [^F^G]2 A2!mf! B2!<)! c2 | %29
!f! c6!mp! B6 | A6[Q:1/4=120] A4- A!mf!A |[Q:1/4=130] A6- A4!mf! !>!A2- | %32
 A/B/A/^G/ A/g/=e/f/ f/!ff!g'/f'/=e'/!>(! (6:4:6_e'/c'/a/b/d'/c'/(6:4:6b/g/f/d/_e/=e/(6:4:6f/^f/a/g/=f/_e/!>)! | %33
!mf! ^c z d4 d2 =c2 G2 |[Q:1/4=120] B6[Q:1/4=110]!mp! ^F6!pp! | %35
[Q:1/4=130] G2 [Bb]"_cresc."d=fe- e2 [Aa]^ced- |[Q:1/4=140]"^accel." d2 [Bb]dfe- e2 [_A_a]^ced- | %37
[Q:1/4=150] d2 [Gg]=Bd=c- c2 [Cc]^G_BA- |[Q:1/4=160] A2 [Ee]=Bdc- c2 =G2 [^FA]2 | %39
[Q:1/4=180]"^agitato" [B,GB]2!f! !>![Bb]4 z2 !>![Aa]4 | z2 !>![Bb]4 z2 !>![_A_a]4 | %41
 z2 !>![Gg]4 z2 !>![Cc]4 | z2 !>![Ee]4 z2 !>![^F,^F]4 | %43
 .[B,G]2[Q:1/4=240]"^sempre più mosso" !>![G,C]B,A,G, z2 !>![B,G]B,A,G, | =FCE^F,CE ^Fc=fedc | %45
 .[Bg]2 !>![Gc]BAG .[Bg]2 !>![Gc]BAG | =fce^Fce ^fc'=f'e'd'c' | %47
 .[bg']2 z!8va(! [g'c'']b'd' [^f'b']a'd'[^fb]ad | [gc']bd'[g'c'']b'd' [^f'b']a'd'[^fb]ad | %49
 [gc']bd'[g'c'']b'd' [^f'b']a'd'[^fb]ad!8va)! | [Gc]Bd[gc']bd [^fb]ad[^FB]AD | %51
 [Gc]Bd[gc']bd [da]gB[Be]dG | [Gc]BD[DA]GB,[K:bass] [B,E]DG,[G,=C]B,D, | %53
 [G,C]B,D,[G,D]CE, [G,C]B,D,[G,D]CE, | [G,C]B,D,[G,D]CE, [G,C]B,D,[G,D]CE, | %55
[K:treble]!<(! G,DB,DGB dgb!8va(!d'g'd''!<)! | %56
!ff! b'!>(!d''g'd'!8va)!bg dBGD!>)!B,!ff![I:staff +1]D, | %57
[I:staff -1] _G,!f!DB,D_Gd BdGDB,!ff![I:staff +1]D, | %58
[I:staff -1] ^F,!f!DB,D^Fd BdFDB,!ff![I:staff +1]D, |[I:staff -1] G,!f!DB,DGB dgb!8va(!d'g'd'' | %60
 b'd''g'd'!8va)!bg dBGDB,!ff![I:staff +1]D, | %61
[Q:1/4=240]"^calando"[I:staff -1] _G,!f!DB,D_Gd!mf! BdGDB,!ff!D, | %62
[Q:1/4=200][I:staff +1] F,!mf![I:staff -1]DB,DFd!mp! BdFDB,[I:staff +1]D, | %63
[Q:1/4=160]"^smorz." F,!p![I:staff -1]CA,CFA[Q:1/4=120] cfac'[Q:1/4=80]!8va(!f'a' | %64
 f''2!8va)! z2 z8 | z12 | z4 z2 z2 z2[Q:1/4=190]"^Meno mosso." [CF]2- | [CF]6!p! G4 G2 | %68
 E6 E2!mp! e3 d |!p! c6!mp! d4 d2 |!p![Q:1/4=200] B6!<(! b4!<)!!mf! b2 | %71
!mp!!>(! b4!>)!!p! _a2 a2[Q:1/4=190] g2 ^f2 | ^f4 g4!mp! _a3 e |!p! g4 =f4!mp! g3 d | %74
 f2 e2 d2 (3cdc =Bcde | !arpeggio![CF]6 G4 G2 | E6- E2!mp! e3 d |!p! c6!mp! d4 d2 | %78
!p! B6!<(! !>!b4[Q:1/4=160]!<)!!mp! b2 |!>(! b6!>)!!p! c4 d2[Q:1/4=190] | %80
[Q:1/4=160] (3efe d2 e2[Q:1/4=140] g2!mp! !>!g2-[Q:1/4=160]!>(! (3gfe!>)! | %81
!p![Q:1/4=170] e6 z2!p![Q:1/4=170]!<(! G_A (3Bdc!<)! |!mp! B6- B2!p!!<(! G_A (3Bdc!<)! | %83
 B6- B2!mp! F_A (3Bdc!mp! | B2- (3B!>!_DE (3GcB _A2- A!>!_CEF |!p! G6 z2!p! G!<(!_A (3Bdc!<)! | %86
!mp! B2!p! !>!b6 (3z!<(! G_A (3BdB!<)! |!mp! B2!p! !>!b6 (3z!mp! G_A (3BdB | %88
 B2- (3B!>!_DE (3GcB _A2- A!>!_CEF | G6- G GBgfe |"_dim." d6- dBdbde | %91
 =e2[Q:1/4=160]"^rallent." f4 fdfd'c'b | %92
[Q:1/4=150] ^gaf'=e'd'a[Q:1/4=140] dAF[Q:1/4=130]D=E{/=G}F | %93
!pp! x6 z[Q:1/4=160]"^a tempo" D=E^Gc=B | A6!p![Q:1/4=150] =e6 | %95
!mp![Q:1/4=140] d6[Q:1/4=80] z!p![Q:1/4=160] D=E^Gc=B | A6[Q:1/4=150]!mp! !>!^F6 | %97
!mp![Q:1/4=140] ^G6[Q:1/4=80] z!p![Q:1/4=160] D=E^Gc=B |!p! A6!mf![Q:1/4=150] =e6 | %99
[Q:1/4=140]!sfz! ^f6[Q:1/4=80] z!pp![Q:1/4=180] C=E^G=BA |!p! A6!mf! ^f6 | %101
!sfz! ^g6!ff! ^f4 z!f![Q:1/4=200] g |!sfz! ^g6[Q:1/4=180]!ff! ^f4 z!f![Q:1/4=200] g | %103
!sfz! ^g6[Q:1/4=180]!f! ^f4 z!f![Q:1/4=200] g | !>!a6[Q:1/4=180]!f! ^g4 a2 | %105
!ff![Q:1/4=190] [=B=d=e^g=b]6 [deg^c']4 [degc']2 |[Q:1/4=200] [A^ca]6 [a^c'a']4 [^gc'^g']2 | %107
 [^f^c'^f']6 [=b^d'^g']4 [ad'g']2 | [=e^g=e']6 [ee']4 [ee']2 | %109
 !>![=e=e']4 [=d=d']2 (3[dd'][ee'][dd'] [^c^c'][dd'][^f^f'][ee'] | %110
 !>![dd']4 [^c^c']2 (3[cc'][dd'][cc'] [^B^b][cc'][=e=e'][dd'] | %111
 [^c^c']2 [=B=b]3!mf! [^A^a]!<(! [Bb]2 (3[^B^b]2 [cc']2 [^G^g]2!<)! | %112
!ff! [=B=b]2 a3 ^g!ff!{/^fg} f2!mf! ^e!<(!fga!<)! |!ff! [=D=E^G=B]6 [EG^c=e]4 [DEGce]2 | %114
 [A,^CA]2 z2 [A^ca]2 [a^c'a']4 [^gc'^g']2 | [^f^c'^f']6 [=b^d'^g']4 [ad'g']2 | %116
 [=e^g=e']4 z2!fff!!8va(! [=e'=e'']4- [e'e'']>[e'e''] | [=e'=e'']2!8va)! z2 z2!ff! !>![^F^f]6- | %118
 [Ff]2"^" P^f/4^g/4f/4g/4f/4g/4f/4g/4 [^E^e][^Ff]!f! [^Gg]!<(![^A^a][=B=b][^c^c'][=d=d'][=e=e']!<)! | %119
!ff! [^f^f']2 z2 z2 !>![^G^g]4 [Gg]2 | ^G4!f! x8 |!ff! .[^g^g']2 z2 z2 .[^Gg]4 .[Gg]2 | %122
"^" P^g/4^a/4g/4a/4g/4a/4g/4a/4!f![Q:1/4=180]"^broaden" [^^F^^f]!<(![^Gg][^A^a][=B=b][Q:1/4=170] [^c^c'][^d^d'][^e^e'][^^f^^f'][^g^g'][^a^a']!<)! | %123
 [=b=b']2!ff![Q:1/4=260]"^accel." !^![^g'b']^e'^d'b [^gb]^e"_dim."^d=B[^GB]^E | %124
[K:bass] ^D=B,!>![^G,B,]^E,^D,=B,, !>![G,B,]E,D,B,,[_A,_C]=F, | %125
[Q:1/4=280]"^più animato"!p! _B,_A,_CF,B,A,"_cresc." CF,B,A,CF, | B,_A,_CF,B,A, CF,B,A,CF, | %127
 B,_A,_CF,B,A, CF,B,A,CF, | B,_A,_CF,B,A, CF,B,A,CF, | %129
!f![Q:1/4=200]"^ten." !>!B,2[K:treble][Q:1/4=280]!p! B,D_CD ^CFD_A=EA | F_cGc_Ad Bd_cd^cf | %131
 d_a=eaf_c' gc'ad'bd' |!8va(! _c'd'^c'f'd'_a' =e'a'f'_c''g'c'' | %133
!>(! b'_a'_c''f'b'a' =c''f'b'a'^c''f' | b'_a'd''f'b'a' e''f'b'a'=e''f'!>)! | %135
!pp! f''d''^c''=e''_e''=c''!<(! =b'd''^c''_b'=a'=c'' | %136
 =b'_a'g'_b'a'f'!8va)![Q:1/4=250]"^poco rit." d'ba[Q:1/4=200]b_ab!<)! | %137
!p![Q:1/4=280]"^a tempo" ^fgg'd'e'=b c'g_b_ag=f | ^fgg'd'e'=b c'g_b_ag=f | ^fgg'd'e'=b c'g_b_ag=f | %140
 e2 x d2 x c2 x d2 x | ^fgg'd'e'=b c'g_b_ag=f | ^fgg'd'e'=b c'g_b_ag=f | ^fgg'd'e'=b c'g_b_ag=f | %144
 _fed_dc_c B=A=cBA_A |!p! G!<(!_A=ABcB _AB=Bc_d!<)!!mf!c |!p! =A!<(!B=Bc=dc _Bc^cde!<)!!mf!d | %147
!p! =B!<(!c^cded =c^cde=e!<)!!f!f | g!>(!f=e_ed_d c=B_B=AB!>)!!p!_A | %149
 .G2"_cresc." B,BD_c B,BEG=E_d | CcF=A=E_d CcFA^F_e | DdG=B^Fe DdGB^G=f | x2 A2 ^A2 x2 =B2 ^B2 | %153
!ff![Q:1/4=180]"^ten." !wedge![^c^fa^c']2[Q:1/4=280]!<(! ^Bc^d^e f^ga=bc'^d'!<)! | %154
!fff!!>(! ^e'!>)!!ff!^f'^g'a'f'^c' a^f^cA^F^C |!<(! A,^F^DAA^f ^daa^f'^d'a'!<)! | %156
!fff! ^d'!>(!a'_e'a^fa _eA^FA_EA,!>)! | %157
[Q:1/4=180]"^ten." [B,EGB]2!p![Q:1/4=280] A,B,!<(!CD E=EGFGF | cBABcd e=egfgf | %159
 c'babc'd' e'=e'g'f'g'f'!<)! |!f! .b'2!p! a!<(!bc'd' e'=e'g'f'g'f'!<)! | %161
!f! .b'2 z2 z2!8va(!{/f'} f''!>(!=e''!>)!!p!_e''d''c''b' | a'g'f'=e'_e'd'!8va)! c'bagf=e | %163
 _e_d_cB_A_G FE_D_CB,[I:staff +1]_A, |[I:staff -1] z12[Q:1/4=250] | %165
[Q:1/4=80]"_ten."!ff! z6!>(! [B,=DG]4 [_A,DG]2[Q:1/4=200] | [G,E]2 z2 !>![EGe]2- [EGe]4 [EBd]2 | %167
 [EBc]6 [F=Ad]4 [EAd]2 | [DB]2 z2 z2 [Bb]4 [=B=b]2!>)! | %169
!mf! (5:3:5[cc']2!<(! [b=d']2 [=ec']2 =b2 [ec']2!<)!!ff!{/[_ac']} [a_a']2 z2 z [_ec']!mf! | %170
 (5:3:5[db]2!<(! [_a=c']2 [db]2 =a2 [db]2!<)!!f!{/[gb]} [gg']2 z2 z [db]!mp! | %171
 (5:3:5[c_a]2!<(! [eb]2 [ca]2 [eg]2 [ca]2!<)!!mf! [ff']2 z2!mp! [fa]2!p! | %172
 [fg]2{/_b} [f_a]3 [fg]!<(! .[eg]2 .[ea]2 .[e=a]2!<)! |!ff! [_ABfb]6 [ABdgb]4 [ABdgb]2 | %174
 [Ge]2 z2 z2 !>![ege']4 [ebd']2 | [ebc']6 [f=ad']4 [ead']2 | [db]2 z2 z2 [bb']4 z [bb'] | %177
 [bb']4 z2!mf! !>!c4 d2 |!mp![Q:1/4=150]"^rit." Te2 d2 e2[Q:1/4=100] (4:3:6[dg]2 !>!g2- x2 (3gfe | %179
[Q:1/4=170]"^a tempo" e4 z2 z2 (3z G_A (3Bdc | B6 z2 (3z G_A (3Bdc | B6 z2 (3z F_A (3Bdc | %182
 B2 (3z _D_A (3GcB _A2- A[Q:1/4=170]_CEF |[Q:1/4=180] G2 z2 z2 z2 (3z!<(! G_A (3B=dc | %184
 .B .b!<)!!mf! .b'2 z2 z2!mp! (3z!<(! G_A (3Bdc | .B .b!<)!!mf! .b'2 z2 z2 (3z!mp! F_A (3Bdc | %186
 B2 (3z _D_A (3GcB!>(! _A2- A[Q:1/4=160]_CEF!>)! |!p! G6- G GBgfe | B6- BGB[Q:1/4=130]gfe | %189
[Q:1/4=100] d6- dBdb=ag[Q:1/4=160] | d6- dGdbag | %191
"_dim." dBd[Q:1/4=150]"^rallent."bag dBd[Q:1/4=140]bag | %192
 da[Q:1/4=130]c'bgd[Q:1/4=120] BGC[Q:1/4=80]DF!pp!E |[Q:1/4=110] x6 x!p![Q:1/4=130] CD^FBA | %194
!p! G6[Q:1/4=120]!mp! d6 |!p![Q:1/4=110] c6 x!p![Q:1/4=130] CD^FBA | G6!p![Q:1/4=120] !>!=E6 | %197
!p![Q:1/4=110] ^F6 x!p![Q:1/4=130] =CD^FBA | G6!mp! d6 | =e6[Q:1/4=110] x!p![Q:1/4=140] B,^C=EAG | %200
[Q:1/4=150] G6!mp! =e6[Q:1/4=125][Q:1/4=110] | %201
[Q:1/4=150] ^f6!mf! =e4[Q:1/4=110] z!f![Q:1/4=200] f | %202
 ^f6[Q:1/4=150]!mf! =e4[Q:1/4=110] z!f![Q:1/4=200] f | %203
 ^f6[Q:1/4=150]!f! =e4[Q:1/4=110] z!ff![Q:1/4=200] f |[Q:1/4=150] a6!ff! g4!ff![Q:1/4=100] a2 | %205
!fff! !>![Bdb]2!ff![Q:1/4=180] z!8va(! .[d'b'].[e'c''].[d'b'] .[c'a'].[bg'].[a^f'].[bg'] .[a=f']!8va)!z/[ge']/ | %206
 .[ge'].[^fd'].[ec'].[db].[ca].[Bg][Q:1/4=100]"^poco ritenuto" (3.[A^f].[ce].[cd] (5:4:5.[B=B]/.[_Bd]/.[Ad]/.[^Gd]/.[Ad]/[Q:1/4=80] .[Bd]/.[Ad]/.[cd]/.[Bd]/ || %207
[M:4/4][Q:1/4=280]"^Presto con fuoco" !>![Gd] z!ff!!8va(! [d'g'b']a z [bd'g'][bd'g']^f!8va)! | %208
 z [gbd'][gbd']^c z [dgb][dgb]B | z [eg=c'][egc']d ^c=c[egc']d | ^c=c[e^fc']d ^c=c[dfa]c | %211
 !>![Bdgb]2!8va(! [d'g'b']a z [bd'g'][bd'g']^f!8va)! | z [gbd'][gbd']^c z [dgb][dgb]B | %213
 z [eg=c'][egc']d ^c=c[egc']d | ^c=c[e^fc']d ^c=c[dfa]c | !>![Bdgb]2 _a[e'_a'] a[ea]G[eg] | %216
 ^F[=A^f]f[=a^f'] g[bg']g[Bg] | _A[e_a]a[e'_a'] a[ea]G[eg] | ^F[=A^f]f[=a^f'] g[bg']g[Bg] | %219
 =F[_A=f]f[_a=f'] f[Ae]E[Ae] | D[_Ad]d[_ad'] d[Ac]C[Ac] | C[Ec]c[ec'] c[ec'] B[db] | %222
 B2 =A2 !>!G2 ^F2 | x2 _a2 x2 !>!G2 | ^F2 x2 g2 x2 | _A2 _a2 x2 !>!G2 | ^F2 x2 g2 x2 | %227
 =F[_Af]f[_a=f'] f[Ge]E[Ge] | D[^Fd]d[^fd'] d[=E^c]^C[Ec] | x2 c2!ff! =B2 c2 | c2 e2 d2 e2 | %231
 e2 _g2 f2 g2 |!8va(! ^f2 a2 _b2 c'2 | c'2 b2 b2 a2 | a2 g2 g2 d2 | z b[d'b']b [_d'b']b[c'a']a | %236
 [c'a']a[bg']g [bg']g[^f=d']d | z d'[g'b'd'']d'!8va)! z2 [gbd']d | z2 [GBd]D z2 z2 | %239
 z2 =E x z2 E x | z2 =E x z2 E x | z4 x4 | (6:4:6^CDE=EF^F (6:4:6G^GAB=B=c | %243
 (6:4:6^cd_e=e=f^f (6:4:6g^gab=b=c' |!8va(! (6:4:6^c'd'_e'=e'=f'^f' (6:4:6g'^g'a'b'=b'^c'' | %245
 (6:4:6_e''d''f''e''d''=c''(6:4:6=b'd''c''_b'a'g' | %246
(6:4:6^f'a'g'f'e'd'(6:4:6e'd'=f'e'd'c'!8va)!(5:4:5=bd'c'_ba | %247
[Q:1/4=150] g/^f/a/g/f/e/d/e/d/=f/e/d/c/=B/d/c/_B/A/G/^F/ | %248
E/D/[K:bass][I:staff +1]C/B,/A,/G,/^F,/E,/D,/C,/B,,/A,,/G,,/^F,,/E,,/D,,/C,,/B,,,/A,,,/G,,,/ | %249
[I:staff -1][K:treble][Q:1/4=150] z8 | %250
 z/[I:staff +1] A,,/B,,/C,/D,/=E,/^F,/G,/A,/B,/C/[I:staff -1]D/=E/^F/G/A/(5:4:5B/c/d/e/^f/ | %251
[Q:1/4=60]"^ten." g[Q:1/4=48]"_ritenuto" z z2 z4 | x8[Q:1/4=132]"_accelerando" | %253
[Q:1/4=60]"_ten." x4[Q:1/4=150][I:staff +1] B,,4- | %254
 B,,/C,/D,/=E,/^F,/G,/A,/B,/[I:staff -1]C/D/=E/^F/G/A/B/c/d/=e/^f/g/!8va(!a/b/c'/d'/=e'/^f'/g'/a'/ | %255
[Q:1/4=60]"_ten." x!8va)! z z2[Q:1/4=48]"_ritenuto" x4 | %256
 x4 (6:4:6z[Q:1/4=132]"^accelerado"!f! DGB_ed | %257
[Q:1/4=60]"^ten." d z z2!8va(!{/=e''-} (3[=e'e'']2{/_e''-} [_e'e'']2{/d''-} [d'd'']2 | %258
[Q:1/4=144]"_accel."{/^c''-} (6:4:6[^c'c'']2{/=c''-} [=c'c'']2{/=b'-} [=bb']2[Q:1/4=184] [_b_b']2 [aa']2 [_a_a']2!8va)! | %259
[Q:1/4=200] (6:4:6!>![gg']2 [^f^f']2 [=f=f']2[Q:1/4=240] [=e=e']2 [_e_e']2 [dd']2 | %260
[Q:1/4=300] (6:4:6[^c^c']2 [=c=c']2 [=B=b]2 [_B_b]2 [Aa]2 [_A_a]2 |[Q:1/4=150] .[Gg]4 z4 | %262
!8va(! !>![bd'g'b']8!8va)! |[Q:1/4=48] !>!!fermata!G,8 |] %264
V:2
 C,4- C,E,_A,B, | C,_A,,E,B, C"^dim."_A,[I:staff -1]EB |[I:staff +1] z8 | z8 | z8 | %5
 z4!p!!<(! [E,G,C]4!<)! |!ped! D,-[D,G,]-[D,G,E]- [D,G,E]3- [D,G,E]2 || %7
[M:6/4] z6!ped-up!!mp!!ped! D,,2 z2 z2!ped-up! | z2!mp! G,,2!p! G,,2 z2!mp! B,2 B,2 | %9
 z2 A,2 A,2!ped! z2!mp! D,,2 D,,2!ped-up! | z2!mp! G,,2!p! G,,2 z2 A,,2!p! A,,2 | %11
 z2 D,,2 D,,2!ped! z2 D,2 D,2!ped-up! | z2!mp! G,,2!p! G,,2 z2 =E2 E2 | %13
 z2 =F2 F2!ped! z2 F,,2 F,,2!ped-up! | z2 B,,2 B,,2 z2 B,2 B,2 | %15
 z2 A,2 A,2!ped! z2 D,,2 D,,2!ped-up! | z2!mp! G,,2!p! G,,2 z2!mp! B,2 B,2 | %17
 z2 A,2 A,2!ped! z2 D,,2 D,,2!ped-up! | z2!mp! G,,2!p! G,,2 z2!mp! A,,2!p! A,,2 | %19
!mp! z2!p! D,,2!pp! D,,2!ped! z2 D,2 D,2!ped-up! | z2!mp! G,2!p! G,2 z2!mp! G,,2 G,,2 | %21
 z2 C,4 z2!mp! D,4 | z2 E,4 z2 D,4 |!mp! =B,,C,D,C, G,2 ^C,D,E,D, G,2 | %24
 D,E,F,E, G,2!p!!ped!{/^D,=E,} TE,/F,/E,/F,/ E,/4F,/4E,/4F,/4E,/4F,/4E,/4F,/4 E,/4F,/4E,/4F,/4D,/E,/!ped-up! | %25
 F,6- F,2!mf! [=E,,=E,]2!f! [F,,F,]2 | [^F,,^F,]6-!mp! [F,,F,]2 [^E,,^E,]2 [F,,F,]2 | [G,,G,]12 | %28
 [D,,D,]12 | [E,,E,]12 |!mf! [C,,C,]6!mp! [D,,D,]6 | %31
!mf!!ped! [^C,,^C,]2!mp! [=E,A,=E]2 [E,A,E]2!p! [E,A,E]2 [E,A,E]2 [E,A,E]2!ped-up! | %32
!mp!!ped! [=C,,=C,]2 [F,A,_EF]2 [F,A,_EF]2 [F,A,_EF]2 [F,A,_EF]2 [F,A,_EF]2!ped-up! | %33
!mp!!ped! [B,,,B,,]2!p! [D,F,B,]2 [F,B,D]2!ped-up!!ped! E,,2 [E,G,C]2 [G,CE]2!ped-up! | %34
!mf!!ped! D,,2!p! [G,B,E]2!ped-up! [B,D]4!p! [B,^C]2!pp! [A,=C]2 | %35
!mp!!ped! !>!G,,2!p! =F2 E2!ped-up!!ped! !>!^F,,2 E2 D2!ped-up! | %36
!ped! !>!G,,2 =F2 E2!ped-up!!ped! !>!=F,,2 E2 D2!ped-up! | %37
!ped! !>!E,,2 D2 C2!ped-up!!ped! !>!C,,2 B,2 A,2!ped-up! | %38
!mp!!ped! !>!D,,2!p! G,2 ^F,2!ped-up!!mp!!ped! !>!D,,2 A,2 D,2!ped-up! | %39
!ped! !>![G,,G,]2 =F2 [B,E]2!ped-up!!ped! !>![^F,,^F,]2 E2 [A,D]2!ped-up! | %40
!ped! !>![G,,G,]2 F2 [B,E]2!ped-up!!ped! [=F,,=F,]2 E2 [_A,=B,D]2!ped-up! | %41
!ped! !>![E,,E,]2 D2 [G,C]2!ped-up!!ped! !>![C,,C,]2 B,2 [E,A,]2!ped-up! | %42
!ped! !>!D,,2 [A,,G,]2 [C,^F,]2!ped-up!!ped! !>!D,,2 [A,,E,]2 [C,D,]2!ped-up! | %43
 .[G,,D,]2!ped! [G,,,G,,]2 z2!ped-up! .[G,,D,]2!ped! E,D, z2!ped-up! | %44
!ped! z2 !>!A,4- A,2!ped-up!!ped! [G,,G,]2 [E,E]2!ped-up! | %45
!ped! .[D,D]2 [G,,G,]4!ped-up! .[G,D]2!ped! ED z2!ped-up! | %46
[K:treble]!ped! z2 A4- A2!ped-up!!ped! [G,G]2 [Ee]2!ped-up! | %47
 .[Gd]2 z2!ped! z2 !>![E^FAe]2 d2 D2!ped-up! | %48
!ped! G,2 D2 d2!ped-up!!ped! !>![E^FAe]2 d2 D2!ped-up! | %49
!ped! G,2 z2[K:bass] D,2!ped-up!!ped! !>![E,^F,A,E]2 D2 D,2!ped-up! | %50
!ped! .G,,2 D,2 D2!ped-up! !>![E,^F,A,E]2 D2 D,2 | %51
!ped! G,,2 [D,B,]2 z2!ped-up!!ff! [^C,,^C,]2 [D,,D,]2 z2 | %52
!ped! [G,,,G,,]2 D,2 z2!ped-up! ^C,,2 D,,2 z2 | %53
!ped! [G,,,G,,]2 z2!ped-up! =C,,2!ped! [G,,,G,,]2 z2!ped-up! C,,2 | %54
!ped! [G,,,G,,]2 z2!ped-up! C,,2!ped! [G,,,G,,]2 z2!ped-up! C,,2 | %55
!ped! [G,,,G,,]6 z2 .[DG]2 .[G,D]2 | [DG]4 z2 z2 z2!ped-up! D,,2 | %57
!ped! [G,,,G,,]6- [G,,,G,,]4!ped-up! D,,2 |!ped! [^F,,,^F,,]6- [F,,,F,,]4!ped-up! D,,2 | %59
!ped! [G,,,G,,]6 z2 [D,G,]2 [G,,D,]2 | [D,G,]4 z2 z2 z2!ped-up! D,,2 | %61
!ped! [_G,,,_G,,]6- [G,,,G,,]4!ped-up!!f! D,,2 |!mf!!ped! F,,6 F,,4!ped-up! =G,,2 | %63
!ped! =A,,4 z2 z2!pp! [CF]2 [F,C]2 | [CF]6- [CF]4!pp! [F,C]2 | [CF]6- [CF]4 [F,C]2 | %66
 [CF]4 [F,C]2 [CF]2 [F,C]2!ped-up! z2 |!pp!!ped! B,,,2 B,,2 _A,2!ped-up!!ped! F,2 C2 B,2!ped-up! | %68
!ped! E,,2 B,,2 E,2 G,2 B,2 E2!ped-up! |!ped![I:staff -1] G6!ped-up!!ped! A6!ped-up! | %70
!ped![I:staff +1] B,,2 F,2 B,2[K:treble] D2 F2!p! B2!ped-up! | %71
!ped! C2 E2!pp! F,2!ped-up!!ped! B,2 D2 _A2!ped-up! | %72
[K:bass]!ped! B,2 D2 E,2!ped-up!!ped! _A,2 C2 G2!ped-up! | %73
!ped! _A,2 C2 D,2!ped-up!!ped! G,2 =B,2 F2!ped-up! | %74
!ped! G,2 C2 C,2!ped-up!!ped! F,2 =A,2 E2!ped-up! |!ped! F,2 _A,2!ped! B,,2!ped-up! A,2 C2 B,2 | %76
!ped! E,,2 B,,2 E,2 G,2 B,2 E2!ped-up! |!ped![I:staff -1] G6!ped-up!!ped! A6!ped-up! | %78
!ped![I:staff +1] B,,2 F,2 B,2[K:treble] D2 F2 B2!ped-up! | %79
[K:bass]!ped! C,,2 =E2 B,2!ped-up!!ped! G,2 E2 B,2!ped-up! | %80
!ped! F,2 _E2 A,2!ped-up!!ped! B,,2 D2 _A,2!ped-up! |!p!!ped! E,,B,,G,E,B,G, E2 z2 z2!ped-up! | %82
!ped! E,,B,,G,E,B,G, E2 z2!ped-up! z2 |!ped! E,,B,,_A,F,B,A, D2 z2!ped-up! z2 | %84
!ped! E,,B,, G,2 z2!ped-up!!ped! E,,_C, _A,2!ped-up! z2 |!p!!ped! x2 x2 B,2 x2 z2 z2!ped-up! | %86
!ped! G,,D,B,G,DB, G2 z2!ped-up! z2 |!ped! B,,F,_A,F,B,A, D2 z2!ped-up! z2 | %88
!ped! E,,B,, G,2 z2!ped-up!!ped! E,,_C, _A,2!ped-up! z2 |!p!!ped! x2 x2 B,2 x2 z2 z2!ped-up! | %90
!ped! G,,D,B,G,DB, G2 z2!ped-up! z2 |!ped! A,,F,[K:treble]EB,FD B2 z2!ped-up! z2 | %92
[K:bass]!ped! D,A,[K:treble]FDAF x2 z2!ped-up! z2 |[K:bass] E,6!ped! z6 |!ped! z6 =E6!ped-up! | %95
!ped! D6!ped-up! z6!ped!!ped-up! |!ped! z6!ped-up!!ped! !>!^F,6!ped-up! |!ped! ^G,6 z6!ped-up! | %98
!ped! z6 =E6!ped-up! |!ped! ^F6!ped-up! z6!ped!!ped-up! |!ped! z6 ^F6!ped-up! | %101
!ped! ^G6!ped-up!!ped! ^F4 z!ped-up! G |!ped! ^G6!ped-up!!ped! ^F4 z!ped-up! G | %103
!ped! ^G6!ped-up!!ped! ^F4 z!ped-up! G |"^molto cresc."!ped! !>!A6!ped-up!!ped! ^G4 A2!ped-up! | %105
!ped! .[=E,,,=E,,]2!mf! [=E,^G,D]2 [G,D=E]2 [=B,D^G]2 [G,DE]2 [E,G,D]2!ped-up! | %106
!ff!!ped! .[A,,,A,,]2!mf! [=E,^C]2 [A,=E]2 [CA]2 [A,E]2 [E,C]2!ped-up! | %107
!ff!!ped! .[=B,,,=B,,]2!mf! [^F,=B,]2 [A,^D]2 [B,^F]2 [A,D]2 [F,B,]2!ped-up! | %108
!ff!!ped! [=E,,=E,]2!mf! [E,=B,]2 [^G,=E]2 [B,^G]2 [G,E]2 [E,B,]2!ped-up! | %109
!ff!!ped! !>![^F,,^F,]2!mf! [F,=D]2 [A,A]2!ped-up!!ff!!ped! [=B,,,=B,,]2!mf! [F,D]2 [=B,A]2!ped-up! | %110
!ff!!ped! !>![=E,,=E,]2!mf! [E,^C]2 [^G,^G]2!ped-up!!ff!!ped! [A,,,A,,]2!mf! [E,C]2 [A,G]2!ped-up! | %111
!ff!!ped! [D,,D,]2!mf! [D,=B,]2 [^F,^F]2!ped-up!!ped! [^C,,^C,]2 [^G,^C]2 [B,^E]2!ped-up! | %112
!ped! !>![^F,,,^F,,]2!mf! ^C2 [A,^F]2!ped-up!!ped! [=B,,,=B,,]2 =B,2 [A,^D]2!ped-up! | %113
!ped! [=E,,,=E,,]2!mf! [=B,,^G,]2 [=E,=B,]2 [G,=D]2 [E,B,]2 [B,,G,]2!ped-up! | %114
!ff!!ped! [A,,,A,,]2!mf! [=E,^C]2 [A,=E]2 [CA]2 [A,E]2 [E,C]2!ped-up! | %115
!ff!!ped! [=B,,,=B,,]2!mf! [^F,=B,]2 [A,^D]2 [B,^F]2 [A,D]2 [F,B,]2!ped-up! | %116
!ff!!ped! [=E,,=E,]2!mf! [E,=B,]2 [^G,=E]2 [B,^G]2 [G,E]2 [E,B,]2!ped-up! | %117
!ff!!ped! [=E,,=E,]2!mf! [E,^A,]2 [^F,^C]2 [^A,=E]2 [F,C]2 [E,A,]2!ped-up! | %118
!ff!!ped! [=E,,,=E,,]2!mf! [=E,B,]2 [^F,^C]2 [^A,=E]2 [F,C]2 [E,A,]2!ped-up! | %119
!ff!!ped! [=E,,=E,]2!mf! [E,^B,]2 [^G,^D]2 [^B,^F]2 [G,D]2 [E,B,]2!ped-up! | %120
!ff!!ped! [=E,,,=E,,]2!mf! [=E,^B,]2 [^G,^D]2 [^B,^F]2 [G,D]2 [E,B,]2!ped-up! | %121
!ff!!ped! [=E,,=E,]2!mf! [E,^C]2 [^G,=E]2!ped-up!!ff!!ped! [^D,,^D,]2 [D,=B,]2 [G,^D]2!ped-up! | %122
!ff!!ped! [^C,,^C,]2!mf! [C,^G,]2 [=E,^C]2!ped-up!!ff!!ped! [^G,,,^G,,]2!mf! [=B,,G,]2 [^D,=B,]2!ped-up! | %123
!ff!!ped! [^E,,,^E,,]2 z2 !arpeggio!!>![^E,=B,^D^G]6 z2 | z12!ped-up! | %125
!ped! _B,,,2 =D,2 z2!ped-up!!ped! B,,,2 D,2 z2!ped-up! | %126
!ped! B,,,2 D,2 z2!ped-up!!ped! B,,,2 D,2 z2!ped-up! | %127
!ped! !>!D,2 F2 z2!ped-up!!ped! !>!D,2 F2 z2!ped-up! | %128
!ped! !>!D,2 F2 z2!ped-up!!ped! !>!D,2 F2 z2!ped-up! | %129
!ped! !>!B,,,2 z2 z2!ped-up!!ped! [B,,F,_A,]2 z2 z2!ped-up! | %130
!ped! [F,_A,D]2 z2 z2!ped-up!!ped! [A,DF]2 z2 z2!ped-up! | %131
[K:treble]!ped! [B,F_A]2 z2 z2!ped-up!!ped! [FAd]2 z2 z2!ped-up! | %132
!ped! [_Adf]2 z2 z2!ped-up!!ped! [Bf_a]2 z4!ped-up! |!ped! [f_ad']12- | %134
 [fad']6!ped-up!!ped! [e_ac']6!ped-up! |!ped! [e_a-c']6!ped-up! [dab]2 z2 z2 | z12 | %137
[K:bass]!pp!!ped! E,2[K:treble]"^scherzando" c2 B2!ped-up![K:bass]!ped! B,,2[K:] [F_c]4!ped-up! | %138
[K:bass]!ped! E,2[K:treble] c2 B2!ped-up![K:bass]!ped! B,,2[K:] [F_c]4!ped-up! | %139
[K:bass]!ped! E,2[K:treble] _A2 G2!ped-up![K:bass]!ped! _A,,2[K:] B2 A2!ped-up! | %140
[K:bass]!ped! B,,2 E2 D2!ped-up!!ped! B,,2 C2 B,2!ped-up! | %141
!ped! E,2[K:treble] c2 B2!ped-up![K:bass]!ped! B,,2[K:] [F_c]4!ped-up! | %142
[K:bass]!ped! E,2[K:treble] c2 B2!ped-up![K:bass]!ped! B,,2[K:] [F_c]4!ped-up! | %143
[K:bass]!ped! E,2[K:treble] f2 e2!ped-up![K:bass]!ped! _A,,2[K:] B2 _A2!ped-up! | %144
[K:bass]!ped! B,,2 z2 [F,_A,D]2!ped-up! [F,A,D]2 [F,A,D]2 [F,A,D]2 | %145
!ped! [E,B,_D]2 z [E,,E,] [E,,E,]2!ped-up! [_A,C]2 [G,,G,]2 [_G,,_G,]2 | %146
!ped! [=A,E]2 z [F,,F,] [F,,F,]2!ped-up! [B,=D]2 [A,,A,]2 [_A,,_A,]2 | %147
!ped! [=B,F]2 z [G,,G,] [G,,G,]2!ped-up! [CE]2 !>![C,,C,]2 z2 | %148
!ped! [_A,E]2 !>!_C,2!ped-up! z2!ped! [A,D]2 !>!B,,2!ped-up! z2 | %149
 .[E,,E,]2 [G,,G,]2 !>![_A,,_A,]2 [G,,G,]2 [E,,E,]2 !>![B,,B,]2 | %150
 [=A,,=A,]2 [F,,F,]2 !>![B,,B,]2 [A,,A,]2 [F,,F,]2 !>![C,C]2 | %151
 [=B,,=B,]2 [G,,G,]2 !>![C,C]2 [B,,B,]2 [G,,G,]2 !>![D,D]2 | %152
 [^C,^C]2 [A,,A,]2 !>![=E,=E]2 [^D,^D]2 [=B,,=B,]2 !>![=D,=D]2 | %153
 !>![^C,,^C,]2!ped! z[K:treble] [A,^C^FA] .[A,CFA]2!ped-up!!ped! .[A,CFA]2 .[A,CFA]2 .[A,CFA]2!ped-up! | %154
!ped! [A,^C^FA]6!ped-up!!ped! z2 z2[K:bass] !>![^C,,^C,]2!ped-up! | %155
!ped! !>![^B,,,^B,,]2 z [^F,A,^D] [F,A,D]2!ped-up!!ped! .[F,A,D]2 z2 !>![=C,,=C,]2!ped-up! | %156
!ped! !>![_C,,_C,]2 z [^F,A,_E] [F,A,E]2!ped-up!!ped! [F,A,E]2 z2 !>![C,,C,]2!ped-up! | %157
 !>![B,,,B,,]2 z2 z2 z2!pp! [A,CE]2 [_A,B,D]2 | [G,B,E]2 z2 z2 z2[K:treble]!<(! [=Ace]2 [_ABd]2 | %159
 [GBe]2 z2 z2 z2 [=ac'e']2 [_abd']2!<)! |!mp! [gbe']2 z2 z2 z2 [=ac'e']2 [_abd']2 | %161
 [gbe']2 z2 z2!ped! [CEF=A]2 z2 z2 | z12!ped-up! | %163
[K:bass]!ped! !arpeggio![_C,E,_A,E]2 z2 z2!ped-up! z6 | %164
!<(! _G,F,E,_D,_C,B,, _A,,_G,,F,,E,,_D,,_C,,!<)! | %165
!ped! B,,,F,,B,,=D,B,,F,, B,,,F,,B,,=D,!ped-up!B,,F,, | %166
!ped! E,,B,,E,G,E,B,, E,,C,E,B,!ped-up!E,C, | %167
!ped! F,,C,E,B,E,!ped-up!C,!ped! F,,C,E,=A,!ped-up!E,C, |!ped! B,,F,B,DB,F, B,,F,B,FB,!ped-up!F, | %169
!ped! B,,G,C=EC!ped-up!G,!ped! B,,!>(!_A,!>)!CFC!ped-up!A, | %170
!ped! B,,F,_A,DA,!ped-up!F,!ped! B,,!>(!E,!>)!G,EG,!ped-up!E, | %171
!ped! B,,E,_A,CA,!ped-up!E,!ped! B,,!>(!F,!>)!A,DA,!ped-up!F, | %172
!ped! =B,,F,G,DG,F,!ped-up!!ped! C,E,G,E_G,E,!ped-up! | %173
!ped! D,!mf!_A,B,FB,A,!ped-up!!ped! B,,F,B,DB,!ped-up!F, |!ped! E,,B,,E,G,B,E GEB,G,E,!ped-up!B,, | %175
!ped! F,,C,E,B,E,!ped-up!C,!ped! F,,C,E,=A,E,!ped-up!C, | %176
!ped! B,,,B,,F,B,DF[K:treble] dBF[K:bass]DB,F,!ped-up! |!ped! B,,=E,G,CG,E, B,,E,G,CG,!ped-up!E, | %178
!ped! B,,F,=A,CA,!ped-up!F,!ped! B,,F,_A,DA,F,!ped-up! | %179
!p!!ped! E,,B,,E,G,E,B,, E,,B,,E,B,E,!ped-up!B,, |!ped! E,,B,,E,G,E,B,, E,,B,,E,B,E,!ped-up!B,, | %181
!ped! E,,B,,D,_A,D,B,, E,,B,,D,B,D,!ped-up!B,, | %182
!ped! E,,B,,E,G,E,!ped-up!B,,!ped! E,,_C,E,_A,E,C,!ped-up! | %183
!ped! E,,B,,E,G,E,B,, E,,B,,E,B,E,!ped-up!B,, |!ped! E,,B,,E,G,E,B,, E,,B,,E,B,E,!ped-up!B,, | %185
!ped! E,,B,,D,_A,D,B,, E,,B,,D,B,D,!ped-up!B,, | %186
!ped! E,,B,,E,G,E,!ped-up!B,,!ped! E,,_C,E,_A,E,C,!ped-up! | %187
!ped! E,,B,,E,G,E,B,, E,,B,,E,B,E,!ped-up!B,, |!ped! E,,B,,E,G,E,B,, E,,B,,E,B,E,!ped-up!B,, | %189
!ped! G,,D,G,B,DB, GDB,G,D,G,,!ped-up! |!ped! G,,,G,,D,G,B,D[K:treble] BGD[K:bass]B,G,D,!ped-up! | %191
!ped! G,,D, D2 z8!ped-up!!ped!!ped-up! |!ped! z12!ped-up!!ped!!ped-up! | %193
!pp!!ped! D,6 x2 x4!ped-up! |!ped! x6!ped-up!!ped! D6!ped-up! | %195
!ped! C6 z2!ped-up!!ped! x4!ped-up! |!ped! z2 .D,,2 .D,,2!ped-up!!ped! z2 .D,,2 .D,,2!ped-up! | %197
!ped! z2 .D,,2 .D,,2 z2!ped-up!!ped! .D,,2 .D,,2!ped-up! |!ped! x6!ped-up!!ped! D6!ped-up! | %199
!ped! =E6 z6!ped-up!!ped!!ped-up! |!ped! z6!ped-up!!ped! =E6!ped-up! | %201
!ped! ^F6!ped-up!!ped! =E4 z!ped-up! F |!ped! ^F6!ped-up!!ped! =E4 z!ped-up! F | %203
!ped! ^F6!ped-up!!ped! =E4 z!ped-up! F |!ped! A6!ped-up!!ped! G4 z2!ped-up! | %205
"^il più forte possibile"!ped! !>![D,,,D,,]2 [D,B,]2 [G,D]2 [B,G]2 [G,D]2 [D,B,]2!ped-up! | %206
!ped! [D,,,D,,]2 [D,^F,C]2 [F,CD]2 [C^F]2!ped-up! [F,CD]2 [D,F,C]2 || %207
[M:4/4] [G,,,G,,]2!ped! z2 [B,DG]2 B,,2!ped-up! | %208
!ped! [B,DG]2 D,2!ped-up!!ped! [B,DG]2 G,2!ped-up! |!ped! [A,=CEG]2 A,,2!ped-up! [CEG]2 A,2 | %210
 [=CD^F]2 D,2 [CDF]2 A,2 | !>![G,DG]2!ped! G,,2 [B,DG]2 B,,2!ped-up! | %212
!ped! [B,DG]2 D,2!ped-up!!ped! [B,DG]2 G,2!ped-up! |!ped! [A,=CEG]2 A,,2!ped-up! [=CEG]2 A,2 | %214
 [=CD^F]2 D,2 [=CDF]2 A,2 | !>![G,DG]2!ped! C,4 [_A,E]2!ped-up! | %216
!ped! D,2 [=A,CD]2!ped-up!!ped! G,,2 [G,B,D]2!ped-up! |!ped! z2 [_A,E]4 [A,E]2!ped-up! | %218
!ped! D,2 [=A,CD]2!ped-up!!ped! G,,2 [G,B,D]2!ped-up! | %219
!ped! =B,,2 [F,_A,D]2!ped-up!!ped! z2 [E,A,C]2!ped-up! |!ped! z2 [F,_A,=B,]2!ped-up! z2 A,2 | %221
!ped! ^F,,2 [^F,CE]2!ped-up! [G,_B,D]2 G,,2 |!ped! C,2 [=A,EA]2!ped-up! z2 [A,CD]2 | %223
 !>![G,B,D]2 C,4 [_A,E]2 | D,2 [=A,CD]2 G,,2 [G,B,D]2 | z2 [_A,E]6 | D,2 [=A,CD]2 G,,2 [G,B,D]2 | %227
 [=B,,,=B,,]2 [F,_A,D]2 [C,,C,]2 [E,G,C]2 | [D,,D,]2 [^F,=A,]2 [=E,,=E,]2 G,2 | %229
 [^F,,^F,]2 [F,C_E]2"^cresc." [F,CE]2!fff! .[G,,G,]2 | %230
"^-" .[_A,,_A,]2!ff! [A,E_G]2 [=A,EG]2"^-"!fff! .[=A,,A,]2 | %231
"^-" .[_B,,_B,]2!ff! [B,E_G]2 [_CE=A]2"^-"!fff! .[=B,,=B,]2 | %232
"^-" .[C,C]2[K:treble]!ff! [CD^FA]4!fff!"^-" [CDFA]2 | %233
[K:bass]!ped! [_B,,_B,]2[K:treble] [G,DG]2!ped-up![K:bass]!ped! [C,C]2[K:treble] [A,EG]2!ped-up! | %234
[K:bass]!ped! [D,D]2[K:treble] [DGB]2!ped-up![K:bass]!ped! [C,C]2[K:treble] [CD^FA]2!ped-up! | %235
[K:bass]!ped! [B,,B,]2[K:treble] [G,DG]2!ped-up![K:bass]!ped! [C,C]2[K:treble] [A,EG]2!ped-up! | %236
[K:bass]!ped! [=D,=D]2[K:treble] [DGB]2!ped-up![K:bass]!ped! [C,C]2[K:treble] [CD^FA]2!ped-up! | %237
[K:bass]!ff!!ped! [B,,B,]2 z2[K:treble] [gbd']d z2 | %238
 [GBd]D z2[K:bass] [G,B,D]D, [G,B,D]D,!ped-up! | %239
 [^F,,,^F,,][G,,,G,,] [G,B,]D, [^C,,^C,][D,,D,] [G,B,]D, | %240
 [^F,,,^F,,][G,,,G,,] [G,B,]D, [^C,,^C,][D,,D,] [G,B,]D, | %241
!fff!!ped! x4!ff! (6:4:6G,^G,A,B,=B,[I:staff -1]C!ped-up! |[I:staff +1] z4 [=G,_B,^C=E]3 [G,B,CE] | %243
 [G,_B,^C^F]4 [G,B,C=E]3 [G,B,CE] | [G,B,^C^F]4 [G,B,C=E]4 |!ped! !arpeggio![D,A,=CG]8- | %246
 [D,A,CG]8- [D,-A,-C-G]4!ped-up! |!ped! [D,A,C^F]8 x2!ped-up! |!ped! x10!ped-up! |!ped! !>!G,,,8- | %250
 G,,,/!f!A,,,/!<(!B,,,/C,,/D,,/=E,,/^F,,/G,,/A,,/B,,/C,/D,/=E,/^F,/G,/A,/(5:4:5B,/C/D/=E/^F/!ped-up!!<)! | %251
 z2 z2!p!!ped! [D,G,B,]3!pp! [D,G,B,] | [D,G,B,]4!ped-up! (6:4:6z!f! D,G,A,CB, | %253
 B, z z2!ped!!>(! x4!>)! |!f! x8 x4[K:treble] x2!ped-up! | %255
[I:staff -1] b[I:staff +1] z z2[K:bass]!p!!ped! [D,G,B,D]3 [D,G,B,D] |!pp! [D,G,B,D]4!ped-up! x4 | %257
 D z z2!fff!"^poco ritento"!ped!{/B,,,-} (3[B,,,B,,]2{/=B,,,-} [B,,,=B,,]2{/C,,-} [C,,C,]2!ped-up! | %258
!ped!{/^C,,-} (6:4:6[C,,^C,]2{/D,,-} [D,,D,]2{/^D,,-} [D,,^D,]2!ped-up!"^-"!ped! [=E,,=E,]2 [F,,F,]2 [^F,,^F,]2!ped-up! | %259
"^-"!ped! (6:4:6!>![G,,G,]2 [^F,,^F,]2 [=F,,=F,]2"^-" [=E,,=E,]2 [_E,,_E,]2 [D,,D,]2!ped-up! | %260
"^-"!ped! (6:4:6[^C,,^C,]2 [=C,,=C,]2 [=B,,,=B,,]2"^-" [_B,,,_B,,]2 [A,,,A,,]2 [_A,,,_A,,]2!ped-up! | %261
!ped! .[G,,,G,,]4 z4 | !>![G,DG]8 | !>!!fermata![G,,,G,,]8!ped-up! |] %264
V:3
 C,,4- C,,E,,_A,,B,, | x8 | x8 | x8 | x8 | x8 | x8 ||[M:6/4] x12 | x12 | x12 | x12 | x12 | x12 | %13
 x12 | x12 | x12 | x12 | x12 | x12 | x12 | x12 | z2 C,,2 G,2 z2 D,,2 G,2 | %22
 z2 E,,2!p! G,2 z2 D,,2 G,2 | x12 | x12 | x12 | x12 | x12 | x12 | x12 | x12 | x12 | x12 | x12 | %34
 x4 G,2 D,6 | x2 [G,B,]4 x2 [^F,A,]4 | x2 [G,B,]4 x2 [F,_A,=B,]4 | x2 [E,G,]4 x2 E,4 | %38
 x2 [D,C]4 x2 x4 | x2 G,4 x2 ^F,4 | x2 G,4 x2 F,4 | x2 E,4 x2 C,4 | x12 | x12 | %44
 [E,,A,,C,]6- [E,,A,,C,]2 x4 | x4 x4 G,4 |[K:treble] [G,CE]6- [G,CE]2 x4 | x12 | x2 D4 x2 x4 | %49
 x4[K:bass] x8 | x12 | x12 | x12 | x12 | x12 | x12 | x12 | x12 | x12 | x12 | x12 | x12 | F,,,12- | %63
 F,,,4 x2 x2 x4 | x12 | x12 | x12 | x12 | x12 | C2 E2 F,2 E2 G2 F2 | x6[K:treble] x6 | x12 | %72
[K:bass] x12 | x12 | x12 | x12 | x12 | C2 E2 F,2 E2 G2 F2 | x6[K:treble] x6 |[K:bass] x6 G,6 | %80
 F,6 x2 x4 | x12 | x12 | x12 | x12 | E,,B,,G,E,!>!B,G, E2 x2 x2 | x12 | x12 | x12 | %89
 E,,B,,G,E,!>!B,G, E2 x2 x2 | x12 | x2[K:treble] x10 |[K:bass] x2[K:treble] x10 | %93
[K:bass] z2!p! .E,,2 .E,,2 x2 .E,,2 .E,,2 | z2!p! .=E,,2 .E,,2 z2 .[=E,A,C]2 .[E,A,C]2 | %95
 z2 .[=E,A,]2 .[E,A,]2 z2 .=E,,2 .E,,2 | z2!p! .=E,,2 .E,,2 z2 .E,,2 .E,,2 | %97
 z2 .=E,,2 .E,,2 z2 .E,,2 .E,,2 | z2 .=E,,2 .E,,2 z2 .[=E,A,C]2 .[E,A,C]2 | %99
 z2 .[=E,A,C]2 .[E,A,C]2 z2!p! .=E,,2 .E,,2 | z2 .=E,,2 .E,,2 z2 [=E,A,C]2 [E,A,C]2 | %101
 z2"^sempre cresc." .[=E,A,C]2 .[E,A,C]2 z2 [E,A,C]2 z2 | z2 .[=E,A,C]2 .[E,A,C]2 z2 [E,A,C]2 z2 | %103
 z2 .[=E,A,C]2 .[E,A,C]2 z2 [E,A,C]2 z2 | z2 [=E,A,C]2 [E,A,C]2 z2 [E,A,C]2 !arpeggio![E,A,C]2 | %105
 x12 | x12 | x12 | x12 | x6 x2 D4 | x6 x2 ^C4 | x12 | x2 ^F,4 x2 F,4 | x12 | x12 | x12 | x12 | %117
 x12 | x12 | x12 | x12 | x12 | x12 | x12 | x12 | x12 | x12 | x12 | x12 | x12 | x12 | %131
[K:treble] x12 | x12 | x12 | x12 | x12 | x12 |[K:bass] x2[K:treble] [EG]4[K:bass] x2[K:] =C2 D2 | %138
[K:bass] x2[K:treble] [EG]4[K:bass] x2[K:] =C2 D2 | %139
[K:bass] x2[K:treble] [B,E]4[K:bass] x2[K:] [_CE]4 |[K:bass] x2 [F,_A,]4 x2 [F,A,]4 | %141
 x2[K:treble] [EG]4[K:bass] x2[K:] =C2 D2 |[K:bass] x2[K:treble] [EG]4[K:bass] x2[K:] =C2 D2 | %143
[K:bass] x2[K:treble] [GB]4[K:bass] x2[K:] [_CE]4 |[K:bass] x12 | x12 | x12 | x12 | x12 | x12 | %150
 x12 | x12 | x12 | x3[K:treble] x9 | x10[K:bass] x2 | x12 | x12 | x12 | x8[K:treble] x4 | x12 | %160
 x12 | x12 | x12 |[K:bass] x12 | !>!_C,,2 z2 z2 z6 | x12 | x12 | x12 | x12 | x12 | x12 | x12 | %172
 x12 | x12 | x12 | x12 | x6[K:treble] x3[K:bass] x3 | x12 | x12 | x12 | x12 | x12 | x12 | x12 | %184
 x12 | x12 | x12 | x12 | x12 | x12 | x6[K:treble] x3[K:bass] x3 | x12 | x12 | %193
 z2 D,,2 D,,2 z2 D,,2 D,,2 | z2 D,,2 D,,2 z2 [D,G,]2 [D,G,]2 | %195
 z2 .[D,G,]2 .[D,G,]2 x2 .D,,2 .D,,2 | x12 | x12 | z2 .D,,2 .D,,2 z2 .[D,G,B,]2 .[D,G,B,]2 | %199
 z2 .[D,G,B,]2 .[D,G,B,]2 z2 D,,2 D,,2 | z2 D,,2 D,,2 z2 [D,G,B,]2 [D,G,B,]2 | %201
 z2 [D,G,B,]2"^se seimpre cresc." [D,G,B,]2 z2!mp! [D,G,B,]2 z2 | %202
 z2 [D,G,B,]2 [D,G,B,]2 z2 [D,G,B,]2 z2 | z2 [D,G,B,]2 [D,G,B,]2 z2 [D,G,B,]2 z2 | %204
 z2 [B,^C=E]2 [B,CE]2 z2 [B,CE]2 x2 | x12 | x12 ||[M:4/4] x8 | x8 | x8 | x8 | x8 | x8 | x8 | x8 | %215
 x2 C,6 | x8 | C,8 | x8 | x4 C,4 | D,4 E,4 | x8 | x4 D,4 | x2 C,6 | x8 | C,4 D,2 D,2 | x8 | x8 | %228
 x8 | x8 | x8 | x8 | x2[K:treble] x6 |[K:bass] x2[K:treble] x2[K:bass] x2[K:treble] x2 | %234
[K:bass] x2[K:treble] x2[K:bass] x2[K:treble] x2 | %235
[K:bass] x2[K:treble] x2[K:bass] x2[K:treble] x2 | %236
[K:bass] x2[K:treble] x2[K:bass] x2[K:treble] x2 |[K:bass] x4[K:treble] x4 | x4[K:bass] x4 | x8 | %240
 x8 | [D,,,D,,]4 z4 | x8 | x8 | x8 | x8 | x12 | x10 | x10 | x8 | x10 | x2 x2 [G,,,G,,]3 [G,,,G,,] | %252
 [G,,,G,,]4 (6:4:6z D,,G,,A,,C,B,, | B,, z z2 G,,,4- | %254
 G,,,/!<(!A,,,/B,,,/C,,/D,,/=E,,/^F,,/G,,/A,,/B,,/C,/D,/=E,/^F,/G,/A,/B,/C/D/[K:treble]=E/^F/G/A/B/c/d/=e/f/!<)! | %255
 g z z2[K:bass] [G,,,G,,]3 [G,,,G,,] | [G,,,G,,]4 (6:4:6z D,G,B,_ED | x8 | x8 | x8 | x8 | x8 | x8 | %263
 x8 |] %264
V:4
 x8 | x8 | cGB_A G2 ^F x | x ^FGF ^EF(3=AG_E | E>D(3=FED D2 x2 | x8 | x8 ||[M:6/4] x6 z CD^FBA | %8
 z2 [B,D]2 [B,D]2 z2 [DG]2!p! [DG]2 | z2!p! [CEG]2!pp! [CEG]2 z CD^FBA | %10
 z2 [B,D]2 [B,D]2 z2!mp! [G,A,^C]2 [G,A,C]2 | z2!p! [^F,A,D]2!pp! [F,A,D]2 z CD^FBA | %12
 z2 [B,D]2 [B,D]2 z2!mp! [GB_d]2!p! [GBd]2 | z2!p! [Bc]2!pp! [Bc]2 _EFA!mf!e dz/^c/ | %14
 z2!mp! [EFA]2!p! [EFA]2 z2!mp! [DFB]2!p! [DFB]2 | z2!p! [EG]2!pp! [EG]2 z CD^FBA | %16
 z2 [B,D]2 [B,D]2 z2 [DG]2!p! [DG]2 | z2!p! [CEG]2!pp! [CEG]2 z CD^FBA | %18
 z2 [B,D]2 [B,D]2 z2 [G,A,^C]2 [G,A,C]2 | z2 [^F,A,D]2 [F,A,D]2 z CD^FBA | %20
 z2 [=B,D=F]2 [B,DF]2 z2 [FG=Bd]2!p! [FGBd]2 | z2!mp! [Gce]2!p! [Gce]2 z2 [DG]2!p! [DG]2 | %22
 z2!mp! [CG]2 [CG]2 z2!p! [_B,D]2!pp! [B,D]2 | z2!mp! [Gce]2!p! [Gce]2 z2!mp! [DG]2!p! [DG]2 | %24
 z2!mp! [CG]2!p! [CG]2 z2!mp! [B,^C]2 [B,C]2 | z2!mp! [B,D]2!p! [B,D]2 z2!mp! [DFB]2!p! [DFB]2 | %26
 [EA]2 [EA]2 E2 [EA]2 [EA]2 [EA]2 | z2!mp!!>(! [E_B]2!p! [EB]2 [DB]2 [DB]2!p! [DB]2!>)! | %28
 [C^F]2 [CF]2 C2 [CF]2 [CF]2 [CF]2 | z2!mp!!>(! [C=G]2!p! [CG]2 [B,G]2!>)!!mp! [B,G]2!p! [B,G]2 | %30
 [EG]2!mp! [EG]2!p! [EG]2 [D^F]2!mp! [DF]2 [DF]2 | !arpeggio![A,=E]2 x2 x8 | x12 | x12 | x12 | %35
 x12 | x12 | x12 | x8 ED^C=C | x2 Bdfe x2 A^ced | x2 Bdfe x2 _A^ced | x2 G=Bdc x2 C^G_BA | %42
 x2 E=Bdc x2 ^F,^CED | x12 | x12 | x12 | x12 | x3!8va(! x9 | x12 | x12!8va)! | x12 | x12 | %52
 x6[K:bass] x6 | x12 | x12 |[K:treble] x9!8va(! x3 | x4!8va)! x8 | x12 | x12 | x9!8va(! x3 | %60
 x4!8va)! x8 | x12 | x12 | x10!8va(! x2 | x2!8va)! x10 | x12 | x12 | x6 D6 | x12 | x12 | B6 x2 x4 | %71
 x12 | x12 | x12 | x12 | x6 D6 | E6 x6 | x12 | B6 x2 x4 | x12 | x12 | x12 | x12 | x12 | %84
 x2 (3:2:2x _D2 x4 x _C2 x | x12 | x12 | x12 | x2 (3:2:2x _D2 x4 x _C2 x | x12 | x12 | x12 | %92
 x6 d x x4 | x6 x D4 x | z2!pp! .[C=E]2!pp! .[CE]2 z2!pp! .A2!pp! .A2 | %95
 z2!pp! .[FA]2!pp! .[FA]2 x D4 x | z2!pp! .[C=E]2!pp! .[CE]2 z2!pp! .[A,CE]2!pp! .[A,CE]2 | %97
 z2!pp! .[=B,=E]2!pp! .[B,E]2 x D4 x | z2!<(! .[C=E]2 .[CE]2 z2!mp! .A2 .A2!<)! | %99
 z2!mp! .[=EAc]2 .[EAc]2 x C4 x | z2!mp!!<(! .[C=E]2 .[CE]2 z2!mp! [EAc]2 [EAc]2!<)! | %101
 z2!mp! .[Ac^d]2 .[Acd]2 z2!mf! [Acd]2 z2 | z2!mf! .[Ac^d]2 .[Acd]2 z2!mf! [Acd]2 z2 | %103
 z2!mf! .[Ac^d]2 .[Acd]2 z2 [Acd]2 z2 | z2!mf! [c^d^f]2 [cdf]2 z2!f! [cdf]2 [cdf]2 | x12 | x12 | %107
 x12 | x12 | a12 | ^g12 | ^f6 ^e6 | [^c^f]6 [A=c^d]2 [A=Bd][ABd][ABd][ABd] | x12 | x12 | x12 | %116
 x6!8va(! x6 | x2!8va)! x10 | x2 ^F2 x8 | x12 | %120
 ^G^g=ag[^^F^^f]!<(![Gg] [^A^a][^B^b][^c^c'][^d^d'][=e=e'][^f^f']!<)! | x12 | ^G2 x2 x8 | x12 | %124
[K:bass] x12 | x12 | x12 | x12 | x12 | x2[K:treble] x10 | x12 | x12 |!8va(! x12 | x12 | x12 | x12 | %136
 x6!8va)! x6 | x12 | x12 | x12 | e_afdaf cafdaf | x12 | x12 | x12 | x12 | x12 | x12 | x12 | x12 | %149
 x4 x4 E2 =E2 | x2 F2 =E2 x2 F2 ^F2 | x2 G2 ^F2 x2 G2 ^G2 | =E=eA^c^A=g ^F^f=B^d^B=a | x12 | x12 | %155
 x12 | x12 | x12 | x12 | x12 | x12 | x6!8va(! x6 | x6!8va)! x6 | x12 | x12 | x12 | x12 | x12 | %168
 x12 | (5:3:5x2 x2 x2 _b2 z2 x2 x4 | (5:3:5x2 x2 x2 _a2 z2 x2 x4 | x12 | x12 | x12 | x12 | x12 | %176
 x12 | x4 x2 .C2 z2 .D2 | .E2 .D2 .E2 (4:3:4.G2 ._A2 .B2 .G2 | G4 x2 x2 x4 | x12 | x12 | x12 | %183
 x12 | x12 | x12 | x12 | x12 | x12 | x12 | x12 | x12 | x12 | x6 z x D3 x | %194
 z2!pp! [B,D]2 [B,D]2 z2!pp! G2 G2 | z2!pp! .[EG]2 .[EG]2 z x D3 x | %196
 z2!pp! .[B,D]2 .[B,D]2 z2!pp! .[G,B,^C]2 .[G,B,C]2 | z2!pp! .[^F,A,D]2 .[F,A,D]2 z x D3 x | %198
 z2!pp!!<(! .[B,D]2 .[B,D]2 z2!pp! .[GB]2 .[GB]2!<)! | z2!pp! .[GB]2 .[GB]2 z x ^C3 x | %200
 z2!pp!!<(! [B,^C=E]2 [B,CE]2 z2!p! [GB^c]2 [GBc]2!<)! | z2!p! [GB^c]2!pp! [GBc]2 z2 [GBc]2 z2 | %202
 z2!p! [GB^c]2!pp! [GBc]2 z2!mp! [GBc]2 z2 | z2!mf! [GB^c]2 [GBc]2 z2!mf! [GBc]2 z2 | %204
 z2 [B^c=e]2 [Bce]2 z2!f! [Bce]2 A2 | x3!8va(! x8!8va)! x | x12 ||[M:4/4] x2!8va(! x6!8va)! | z8 | %209
 x8 | x8 | x2!8va(! x6!8va)! | x8 | x8 | x8 | x8 | x8 | x2 _a2 x2 G2 | ^F2 x2 g2 x2 | =F2 x2 x4 | %220
 D2 x2 x4 | x2 c2 c2 B2 | B[db]A[c=a] G[Bg]^F[A^f] | !>![GBg]2 _a[e'_a'] a[ea]G[eg] | %224
 ^F[=A^f]f[=a^f'] g[bg']g[Bg] | _A[e_a]a[e'_a'] a[ea]G[cg] | ^F[=A^f]f[=a^f'] g[bg']g[Bg] | x8 | %228
 x8 | ^C[_E=c]c[ec'] =B[e=b]c[ec'] | c[ec']e[_g_e'] d[gd']e[ge'] | e[_ge']g[b_g'] f[_af']g[__bg'] | %232
!8va(! =f[=a^f']a[c'a'] b[d'b']c'[e'c''] | c'[e'c'']b[d'b'] b[d'b']a[c'a'] | %234
 a[c'a']g[bg'] g[bg']d[^fd'] | x8 | x8 | x4!8va)! x4 | x8 | x8 | x8 | x8 | x8 | x8 |!8va(! x8 | %245
 x8 | x8!8va)! x4 | x10 | x[K:bass] x9 |[K:treble] x8 | x10 | G x x2 x4 | x8 | x8 | x10!8va(! x4 | %255
 x!8va)! x7 | x8 | x4!8va(! x4 | x8!8va)! | x8 | x8 | x8 |!8va(! x8!8va)! | x8 |] %264
V:5
 x8 | x8 | x8 | x8 | x8 | x8 | x8 ||[M:6/4] x6 z x D3 x | x12 | x6 z x D3 x | x12 | x6 z x D3 x | %12
 x12 | x6 x2 A4 | x12 | x6 z x D3 x | x12 | x6 z x D3 x | x12 | x6 z x D3 x | x12 | x12 | x12 | %23
 x12 | x12 | x12 | x12 | x12 | x12 | x12 | x12 | x12 | x12 | x12 | x12 | x12 | x12 | x12 | x12 | %39
 x12 | x12 | x12 | x12 | x12 | x12 | x12 | x12 | x3!8va(! x9 | x12 | x12!8va)! | x12 | x12 | %52
 x6[K:bass] x6 | x12 | x12 |[K:treble] x9!8va(! x3 | x4!8va)! x8 | x12 | x12 | x9!8va(! x3 | %60
 x4!8va)! x8 | x12 | x12 | x10!8va(! x2 | x2!8va)! x10 | x12 | x12 | x12 | x12 | x12 | x12 | x12 | %72
 x12 | x12 | x12 | x12 | x12 | x12 | x12 | x12 | x12 | x12 | x12 | x12 | x12 | x12 | x12 | x12 | %88
 x12 | x12 | x12 | x12 | x12 | x6 x2 =E3 x | x12 | x6 x2 =E3 x | x12 | x6 x2 =E3 x | x12 | %99
 x6 x2 =E3 x | x12 | x12 | x12 | x12 | x12 | x12 | x12 | x12 | x12 | x12 | x12 | x12 | %112
 x2 A4 x2 x4 | x12 | x12 | x12 | x6!8va(! x6 | x2!8va)! x10 | x12 | x12 | x12 | x12 | x12 | x12 | %124
[K:bass] x12 | x12 | x12 | x12 | x12 | x2[K:treble] x10 | x12 | x12 |!8va(! x12 | x12 | x12 | x12 | %136
 x6!8va)! x6 | x12 | x12 | x12 | x12 | x12 | x12 | x12 | x12 | x12 | x12 | x12 | x12 | x12 | x12 | %151
 x12 | x12 | x12 | x12 | x12 | x12 | x12 | x12 | x12 | x12 | x6!8va(! x6 | x6!8va)! x6 | x12 | %164
 x12 | x12 | x12 | x12 | x12 | x12 | x12 | x12 | x12 | x12 | x12 | x12 | x12 | x12 | x12 | x12 | %180
 x12 | x12 | x12 | x12 | x12 | x12 | x12 | x12 | x12 | x12 | x12 | x12 | x12 | x6 x x2 ^F2 x | %194
 x12 | x6 x x2 ^F2 x | x12 | x6 x x2 ^F2 x | x12 | x6 x x2 =E2 x | x12 | x12 | x12 | x12 | x12 | %205
 x3!8va(! x8!8va)! x | x12 ||[M:4/4] x2!8va(! x6!8va)! | x8 | x8 | x8 | x2!8va(! x6!8va)! | x8 | %213
 x8 | x8 | x8 | x8 | x8 | x8 | x8 | x8 | x8 | x8 | x8 | x8 | x8 | x8 | x8 | x8 | x8 | x8 | x8 | %232
!8va(! x8 | x8 | x8 | x8 | x8 | x4!8va)! x4 | x8 | x8 | x8 | x8 | x8 | x8 |!8va(! x8 | x8 | %246
 x8!8va)! x4 | x10 | x[K:bass] x9 |[K:treble] x8 | x10 | x8 | x8 | x8 | x10!8va(! x4 | x!8va)! x7 | %256
 x8 | x4!8va(! x4 | x8!8va)! | x8 | x8 | x8 |!8va(! x8!8va)! | x8 |] %264
V:6
 x8 | x8 | x8 | x8 | x8 | x8 | x8 ||[M:6/4] x6 z C4 x | x12 | x6 x C4 x | x12 | x6 z =C4 x | x12 | %13
 x12 | x12 | x6 z C4 x | x12 | x6 z C4 x | x12 | x6 z =C4 x | x12 | x12 | x12 | x12 | x12 | x12 | %26
 x12 | x12 | x12 | x12 | x12 | x12 | x12 | x12 | x12 | x12 | x12 | x12 | x12 | x12 | x12 | x12 | %42
 x12 | x12 | x12 | x12 | x12 | x3!8va(! x9 | x12 | x12!8va)! | x12 | x12 | x6[K:bass] x6 | x12 | %54
 x12 |[K:treble] x9!8va(! x3 | x4!8va)! x8 | x12 | x12 | x9!8va(! x3 | x4!8va)! x8 | x12 | x12 | %63
 x10!8va(! x2 | x2!8va)! x10 | x12 | x12 | x12 | x12 | x12 | x12 | x12 | x12 | x12 | x12 | x12 | %76
 x12 | x12 | x12 | x12 | x12 | x12 | x12 | x12 | x12 | x12 | x12 | x12 | x12 | x12 | x12 | x12 | %92
 x12 | x6 x2 x ^G2 x | x12 | x6 x2 x ^G2 x | x12 | x6 x2 x ^G2 x | x12 | x6 x2 x ^G2 x | x12 | %101
 x12 | x12 | x12 | x12 | x12 | x12 | x12 | x12 | x12 | x12 | x12 | x12 | x12 | x12 | x12 | %116
 x6!8va(! x6 | x2!8va)! x10 | x12 | x12 | x12 | x12 | x12 | x12 |[K:bass] x12 | x12 | x12 | x12 | %128
 x12 | x2[K:treble] x10 | x12 | x12 |!8va(! x12 | x12 | x12 | x12 | x6!8va)! x6 | x12 | x12 | x12 | %140
 x12 | x12 | x12 | x12 | x12 | x12 | x12 | x12 | x12 | x12 | x12 | x12 | x12 | x12 | x12 | x12 | %156
 x12 | x12 | x12 | x12 | x12 | x6!8va(! x6 | x6!8va)! x6 | x12 | x12 | x12 | x12 | x12 | x12 | %169
 x12 | x12 | x12 | x12 | x12 | x12 | x12 | x12 | x12 | x12 | x12 | x12 | x12 | x12 | x12 | x12 | %185
 x12 | x12 | x12 | x12 | x12 | x12 | x12 | x12 | x6 z C4 x | x12 | x6 z C4 x | x12 | x6 z C4 x | %198
 x12 | x6 z B,4 x | x12 | x12 | x12 | x12 | x12 | x3!8va(! x8!8va)! x | x12 || %207
[M:4/4] x2!8va(! x6!8va)! | x8 | x8 | x8 | x2!8va(! x6!8va)! | x8 | x8 | x8 | x8 | x8 | x8 | x8 | %219
 x8 | x8 | x8 | x8 | x8 | x8 | x8 | x8 | x8 | x8 | x8 | x8 | x8 |!8va(! x8 | x8 | x8 | x8 | x8 | %237
 x4!8va)! x4 | x8 | x8 | x8 | x8 | x8 | x8 |!8va(! x8 | x8 | x8!8va)! x4 | x10 | x[K:bass] x9 | %249
[K:treble] x8 | x10 | x8 | x8 | x8 | x10!8va(! x4 | x!8va)! x7 | x8 | x4!8va(! x4 | x8!8va)! | x8 | %260
 x8 | x8 |!8va(! x8!8va)! | x8 |] %264

